symbols/web/flight_land/materialsymbolsoutlined/flight_land_wght100gradN25fill1_24px.svg

<svg xmlns="http://www.w3.org/2000/svg" height="24" width="24"><path d="M3.75 20.25v-.65h16.525v.65Zm15.225-5.075-15.225-4.2v-4l.55.125.7 2.125 5.7 1.6V2.95l.8.175 2.725 8.675 5.325 1.5q.325.1.525.362.2.263.2.613 0 .475-.412.762-.413.288-.888.138Z"/></svg>

<svg xmlns="http://www.w3.org/2000/svg" height="24" width="24"><path d="M3.75 20.25V19.6H20.275V20.25ZM18.975 15.175 3.75 10.975V6.975L4.3 7.1L5 9.225L10.7 10.825V2.95L11.5 3.125L14.225 11.8L19.55 13.3Q19.875 13.4 20.075 13.662Q20.275 13.925 20.275 14.275Q20.275 14.75 19.863 15.037Q19.45 15.325 18.975 15.175Z"/></svg>
